packages/dnb-eufemia/assets/icons/funds_medium.svg

<svg width="24" height="24" viewBox="0 0 24 24" fill="none" xmlns="http://www.w3.org/2000/svg">
<path d="M0.75 23.25H2.25M23.25 23.25H21.75M23.25 5.25V0.75M23.25 0.75H18.75M23.25 0.75L18.2 5.8C17.9128 6.08726 17.5532 6.29138 17.1593 6.39068C16.7655 6.48999 16.352 6.48077 15.963 6.364L10.254 4.838C9.87263 4.73621 9.4712 4.7365 9.08998 4.83882C8.70875 4.94115 8.36114 5.14192 8.082 5.421L2.25 11.253M2.25 23.25H6.75M2.25 23.25V16C2.25 15.8011 2.32902 15.6103 2.46967 15.4697C2.61032 15.329 2.80109 15.25 3 15.25H6C6.19891 15.25 6.38968 15.329 6.53033 15.4697C6.67098 15.6103 6.75 15.8011 6.75 16V23.25M6.75 23.25H9.75M9.75 23.25H14.25M9.75 23.25V10.5C9.75 10.3011 9.82902 10.1103 9.96967 9.96967C10.1103 9.82902 10.3011 9.75 10.5 9.75H13.5C13.6989 9.75 13.8897 9.82902 14.0303 9.96967C14.171 10.1103 14.25 10.3011 14.25 10.5V23.25M14.25 23.25H17.25M17.25 23.25H21.75M17.25 23.25V11.5C17.25 11.3011 17.329 11.1103 17.4697 10.9697C17.6103 10.829 17.8011 10.75 18 10.75H21C21.1989 10.75 21.3897 10.829 21.5303 10.9697C21.671 11.1103 21.75 11.3011 21.75 11.5V23.25" stroke="black" stroke-width="1.5" stroke-linecap="round" stroke-linejoin="round"/>
</svg>

<svg width="24" height="24" viewBox="0 0 24 24" fill="none" xmlns="http://www.w3.org/2000/svg"><path d="M.75 23.25h1.5m21 0h-1.5m1.5-18V.75m0 0h-4.5m4.5 0L18.2 5.8a2.249 2.249 0 0 1-2.237.564l-5.709-1.526a2.251 2.251 0 0 0-2.172.583L2.25 11.253m0 11.997h4.5m-4.5 0V16a.75.75 0 0 1 .75-.75h3a.75.75 0 0 1 .75.75v7.25m0 0h3m0 0h4.5m-4.5 0V10.5a.75.75 0 0 1 .75-.75h3a.75.75 0 0 1 .75.75v12.75m0 0h3m0 0h4.5m-4.5 0V11.5a.75.75 0 0 1 .75-.75h3a.75.75 0 0 1 .75.75v11.75" stroke="#000" stroke-width="1.5" stroke-linecap="round" stroke-linejoin="round"/></svg>
